X:70
T:Gan Ainm
R:Reel
S:Seamus Tansey (flute)
D:Clare FM broadcast. From the Miltown Malbay flute recital.
H:The transcription here is *very* rationalised.
M:4/4
Z:Bernie Stocks
K:G
|: dg~g2 ~g3z | dg~g2 egdB | dg~g2 ~g2de | gedB ~A3z :| dg~g2 ~b3g | egdg egdg | 
dg~g2 b2ag | egdB ~A3z | ~g3d ~g3d | egdg egdg | bgaf gede | gedB ~A3z || G
